X:213
T:Over The Moor To Maggie
R:reel
M:4/4
L:1/8
K:Gmaj
|:DE|G2GA B2Bd|efge dBAG|EAAG ABAG|EAAG AcBA|
GFGA BABd|efge dBAG|DGGFGBAG|EDEF G2:|
|:ga|b2bg a2af|g2ge fedB|eaag abag|eaag a2 ga|
b2bg a2af|g2ge fedB|dggf gbag|edef g2:|
|:cd|e2ec d2dB|c2cA BAGD|EAAG ABAG|EAAG ABcd|
e2ec d2dB|c2cA BAGE|DGGF GBAG|EDEF G2:|

